favicon.svg

<?xml version="1.0" encoding="UTF-8" standalone="no"?>
<!-- Created with Inkscape (http://www.inkscape.org/) -->

<svg
   width="100mm"
   height="100mm"
   viewBox="0 0 100 100"
   version="1.1"
   id="svg5"
   xml:space="preserve"
   inkscape:version="1.2.2 (b0a8486541, 2022-12-01)"
   sodipodi:docname="favicon.svg"
   xmlns:inkscape="http://www.inkscape.org/namespaces/inkscape"
   xmlns:sodipodi="http://sodipodi.sourceforge.net/DTD/sodipodi-0.dtd"
   xmlns:xlink="http://www.w3.org/1999/xlink"
   xmlns="http://www.w3.org/2000/svg"
   xmlns:svg="http://www.w3.org/2000/svg"><sodipodi:namedview
     id="namedview7"
     pagecolor="#ffffff"
     bordercolor="#000000"
     borderopacity="0.25"
     inkscape:showpageshadow="2"
     inkscape:pageopacity="0.0"
     inkscape:pagecheckerboard="0"
     inkscape:deskcolor="#d1d1d1"
     inkscape:document-units="mm"
     showgrid="false"
     inkscape:zoom="2"
     inkscape:cx="94"
     inkscape:cy="204.5"
     inkscape:window-width="1912"
     inkscape:window-height="1117"
     inkscape:window-x="4"
     inkscape:window-y="79"
     inkscape:window-maximized="1"
     inkscape:current-layer="layer1" /><defs
     id="defs2"><linearGradient
       inkscape:collect="always"
       id="linearGradient21163"><stop
         style="stop-color:#ffd91a;stop-opacity:1;"
         offset="0.46162367"
         id="stop21159" /><stop
         style="stop-color:#b78c16;stop-opacity:1;"
         offset="1"
         id="stop21161" /></linearGradient><linearGradient
       inkscape:collect="always"
       id="linearGradient20534"><stop
         style="stop-color:#f8f8f8;stop-opacity:1;"
         offset="0"
         id="stop20530" /><stop
         style="stop-color:#999da8;stop-opacity:1;"
         offset="1"
         id="stop20532" /></linearGradient><linearGradient
       inkscape:collect="always"
       xlink:href="#linearGradient20534"
       id="linearGradient20536"
       x1="5.4096471"
       y1="72.228988"
       x2="94.590353"
       y2="72.228988"
       gradientUnits="userSpaceOnUse"
       gradientTransform="matrix(1.0591491,0,0,1.0591491,-2.9574553,-2.9574553)" /><linearGradient
       inkscape:collect="always"
       xlink:href="#linearGradient21163"
       id="linearGradient21165"
       x1="29.726791"
       y1="19.206623"
       x2="69.952538"
       y2="73.505402"
       gradientUnits="userSpaceOnUse"
       gradientTransform="matrix(1.0591491,0,0,1.0591491,-2.9574553,-2.9574553)" /></defs><g
     inkscape:label="Layer 1"
     inkscape:groupmode="layer"
     id="layer1"><circle
       style="fill:url(#linearGradient21165);fill-opacity:1;stroke:#191919;stroke-width:3.175;stroke-linecap:round;stroke-linejoin:round;stroke-dasharray:none;stroke-opacity:1"
       id="path342"
       cx="50"
       cy="50"
       r="47.087715" /><path
       style="fill:url(#linearGradient20536);fill-opacity:1;stroke:#191919;stroke-width:3.175;stroke-linecap:round;stroke-linejoin:round;stroke-dasharray:none;stroke-opacity:1"
       id="circle7769"
       sodipodi:type="arc"
       sodipodi:cx="50"
       sodipodi:cy="50"
       sodipodi:rx="47.087715"
       sodipodi:ry="47.087715"
       sodipodi:start="0"
       sodipodi:end="3.1415927"
       sodipodi:arc-type="slice"
       d="M 97.087715,50 A 47.087715,47.087715 0 0 1 73.543857,90.779158 47.087715,47.087715 0 0 1 26.456141,90.779157 47.087715,47.087715 0 0 1 2.9122849,50 H 50 Z" /><path
       style="fill:none;stroke:#191919;stroke-width:3.175;stroke-linecap:butt;stroke-linejoin:round;stroke-dasharray:none;stroke-opacity:1"
       d="M 3.0127623,49.905937 H 96.987237"
       id="path952" /><path
       style="color:#000000;fill:#d30f10;fill-opacity:1;stroke:#670708;stroke-width:3.661;stroke-linecap:square;stroke-dasharray:none;stroke-opacity:1"
       d="M 37.51612,37.954222 27.063852,26.750326 50.019429,9.9018806 72.936148,26.711376 62.48388,37.917322 50.019429,26.954394 Z"
       id="path1953"
       sodipodi:nodetypes="ccccccc" /><path
       style="color:#000000;fill:#525252;fill-opacity:1;stroke:#3f3f3f;stroke-width:3.661;stroke-linecap:square;stroke-dasharray:none;stroke-opacity:1"
       d="M 50.019429,90.66116 27.063852,73.812715 37.51612,62.606767 50.019429,73.608645 62.48388,62.645717 72.936148,73.849614 Z"
       id="path3409"
       sodipodi:nodetypes="ccccccc" /><circle
       style="fill:#191919;fill-opacity:1;stroke:#191919;stroke-width:3.175;stroke-linecap:butt;stroke-linejoin:round;stroke-dasharray:none;stroke-opacity:1"
       id="circle3411"
       cx="50"
       cy="50"
       r="7.5286345" /></g></svg>

<svg width="100mm" height="100mm" viewBox="0 0 100 100" xmlns:xlink="http://www.w3.org/1999/xlink"
  xmlns="http://www.w3.org/2000/svg">
  <defs>
    <linearGradient id="prefix__b">
      <stop offset=".462" stop-color="#ffd91a" />
      <stop offset="1" stop-color="#b78c16" />
    </linearGradient>
    <linearGradient id="prefix__a">
      <stop offset="0" stop-color="#f8f8f8" />
      <stop offset="1" stop-color="#999da8" />
    </linearGradient>
    <linearGradient xlink:href="#prefix__a" id="prefix__d" x1="5.41" y1="72.229" x2="94.59" y2="72.229"
      gradientUnits="userSpaceOnUse" gradientTransform="matrix(1.05915 0 0 1.05915 -2.957 -2.957)" />
    <linearGradient xlink:href="#prefix__b" id="prefix__c" x1="29.727" y1="19.207" x2="69.953" y2="73.505"
      gradientUnits="userSpaceOnUse" gradientTransform="matrix(1.05915 0 0 1.05915 -2.957 -2.957)" />
  </defs>
  <circle cx="50" cy="50" r="47.088" fill="url(#prefix__c)" stroke="#191919" stroke-width="3.175" stroke-linecap="round"
    stroke-linejoin="round" />
  <path d="M97.088 50a47.088 47.088 0 01-23.544 40.78 47.088 47.088 0 01-47.088 0A47.088 47.088 0 012.912 50H50z"
    fill="url(#prefix__d)" stroke="#191919" stroke-width="3.175" stroke-linecap="round" stroke-linejoin="round" />
  <path d="M3.013 49.906h93.974" fill="none" stroke="#191919" stroke-width="3.175" stroke-linejoin="round" />
  <path d="M37.516 37.954L27.064 26.75 50.019 9.902l22.917 16.81-10.452 11.205-12.465-10.963z" color="#000"
    fill="#d30f10" stroke="#670708" stroke-width="3.661" stroke-linecap="square" />
  <path d="M50.02 90.661L27.063 73.813l10.452-11.206L50.02 73.609l12.465-10.963L72.936 73.85z" color="#000"
    fill="#525252" stroke="#3f3f3f" stroke-width="3.661" stroke-linecap="square" />
  <circle cx="50" cy="50" r="7.529" fill="#191919" stroke="#191919" stroke-width="3.175" stroke-linejoin="round" />
</svg>
